X:1
T:Ersurge, CMD
T:John Bacchus Dykes (1823-1876)
T:Ersurge, CMD
T:Public Domain
C:John Bacchus Dykes (1823-1876)
Z:Public Domain
%%score ( 1 2 ) ( 3 4 )
L:1/8
M:4/4
K:D
V:1 treble 
V:2 treble 
V:3 bass 
V:4 bass 
V:1
 D2 | F2 A2 d2 A2 | d2 z G [Fd]2 [DA]2 | B,C [DA]2 [DG]2 [CG]2 | [DF]6 D2 | %5
 [DE]2 (FE) [Dd]2 [Df]2 | [Ee]3 [Ed] [Ec]2 [^Ge]2 | (A^G) [Fd]2 [Ec]2 [DB]2 | [CA]6 D2 | %9
 F2 A2 =c2 (cB) | [Ad]3 [A=c] [GB]2 G2 | [GB]2 (GF) (EF) [Ge]2 | [GA]6 [Dd]2 | %13
 [Ec]2 (DE) [FA]2 [GB]2 | [FA]2 [EG]2 [DF]2 [DA]2 | D2 (GF) (DC)(B,C) | D6 |] %17
V:2
 D2 | F2 A2 d2 A2 | A3 e2 x3 | B2 x6 | x6 D2 | x2 A2 x4 | x8 | A2 x6 | x6 D2 | F2 A2 =c2 e2 | %10
 x6 G2 | x2 d2 e2 x2 | x8 | x2 B2 x4 | x8 | D2 D2 E2 E2 | D6 |] %17
V:3
 D,2 | F,2 A,2 D2 [F,D]2 | [B,D]2 [A,C]2 D2 [F,D]2 | [G,D]2 [F,A,]2 [E,B,]2 [E,G,]2 | [D,A,]6 D,2 | %5
 D2 (D[CE]) [B,F]2 (B,A,) | [^G,B,]3 [G,B,] [A,C]2 (CB,) | (F,E,) [D,A,]2 (A,F,) [E,G,]2 | %8
 A,6 D,2 | F,2 A,2 (=CB,)(A,G,) | [F,D]3 [F,D] [G,D]2 [G,B,]2 | [G,D]2 ([B,D][A,=C]) (G,F,)(E,D,) | %12
 (E4 A,2) B,2 | [A,C]2 [G,D]2 [F,D]2 [A,,C]2 | [B,,D]2 [C,A,]2 [D,A,]2 [F,A,]2 | %15
 [G,B,]2 (E,F,) [G,B,]2 [A,,G,]2 | [D,F,]6 |] %17
V:4
 D,2 | F,2 A,2 D2 x2 | x4 D2 x2 | x8 | x6 D,2 | D2 D x2 B,2 x | x6 C,2 | A,2 x E,2 x3 | A,6 D,2 | %9
 F,2 A,2 =C2 C2 | x8 | x4 B,2 B,2 | C,6 B,2 | x8 | x8 | x2 B,2 x4 | x6 |] %17

